SVG_Azure_All/Kafka.svg

<?xml version="1.0" encoding="UTF-8" standalone="no"?>
<!-- Generated by Microsoft Visio, SVG Export Kafka.svg Page-1 -->

<svg
   xmlns:dc="http://purl.org/dc/elements/1.1/"
   xmlns:cc="http://creativecommons.org/ns#"
   xmlns:rdf="http://www.w3.org/1999/02/22-rdf-syntax-ns#"
   xmlns:svg="http://www.w3.org/2000/svg"
   xmlns="http://www.w3.org/2000/svg"
   xmlns:sodipodi="http://sodipodi.sourceforge.net/DTD/sodipodi-0.dtd"
   xmlns:inkscape="http://www.inkscape.org/namespaces/inkscape"
   width="0.78743237in"
   height="0.35430574in"
   viewBox="0 0 56.695129 25.509988"
   xml:space="preserve"
   class="st2"
   version="1.1"
   id="svg41"
   sodipodi:docname="Kafka.svg"
   style="font-size:12px;overflow:visible;color-interpolation-filters:sRGB;fill:none;fill-rule:evenodd;stroke-linecap:square;stroke-miterlimit:3"
   inkscape:version="0.92.5 (2060ec1f9f, 2020-04-08)"><metadata
   id="metadata47"><rdf:RDF><cc:Work
       rdf:about=""><dc:format>image/svg+xml</dc:format><dc:type
         rdf:resource="http://purl.org/dc/dcmitype/StillImage" /></cc:Work></rdf:RDF></metadata><defs
   id="defs45" /><sodipodi:namedview
   pagecolor="#ffffff"
   bordercolor="#666666"
   borderopacity="1"
   objecttolerance="10"
   gridtolerance="10"
   guidetolerance="10"
   inkscape:pageopacity="0"
   inkscape:pageshadow="2"
   inkscape:window-width="640"
   inkscape:window-height="480"
   id="namedview43"
   showgrid="false"
   inkscape:zoom="2.8512167"
   inkscape:cx="37.795278"
   inkscape:cy="-3.966755"
   inkscape:window-x="0"
   inkscape:window-y="0"
   inkscape:window-maximized="0"
   inkscape:current-layer="svg41" />
	<style
   type="text/css"
   id="style2">
	<![CDATA[
		.st1 {fill:#231f20;stroke:none;stroke-linecap:butt;stroke-width:0.75}
		.st2 {fill:none;fill-rule:evenodd;font-size:12px;overflow:visible;stroke-linecap:square;stroke-miterlimit:3}
	]]>
	</style>

	<g
   id="g39"
   transform="translate(-5.66929,-2.5543)">
		<title
   id="title4">Page-1</title>
		<g
   id="group3674-1"
   transform="translate(5.66929,-34.0157)">
			<title
   id="title6">Kafka</title>
			<g
   id="shape3675-2">
				<title
   id="title8">Sheet.3675</title>
				<path
   d="m 5.51,38.88 c -0.29,-0.29 -0.69,-0.51 -1.1,-0.51 -0.46,0 -0.81,0.17 -1.1,0.45 -0.29,0.28 -0.47,0.68 -0.47,1.13 0,0.45 0.18,0.84 0.47,1.12 0.29,0.28 0.69,0.45 1.1,0.45 0.46,0 0.81,-0.17 1.1,-0.45 0.29,-0.28 0.47,-0.67 0.47,-1.12 0,-0.4 -0.18,-0.79 -0.47,-1.07 z m -1.1,21.45 c 0.46,0 0.81,-0.17 1.1,-0.45 0.29,-0.28 0.47,-0.67 0.47,-1.12 0,-0.45 -0.18,-0.85 -0.47,-1.13 -0.29,-0.28 -0.69,-0.45 -1.1,-0.45 -0.46,0 -0.81,0.17 -1.1,0.45 -0.29,0.28 -0.47,0.68 -0.47,1.13 0,0.45 0.18,0.84 0.47,1.12 0.23,0.28 0.64,0.45 1.1,0.45 z m 8.65,-4.78 c 0.4,-0.12 0.75,-0.34 0.98,-0.74 l 0.06,-0.05 c 0.17,-0.34 0.23,-0.79 0.12,-1.13 -0.12,-0.39 -0.35,-0.73 -0.76,-0.96 -0.35,-0.22 -0.81,-0.22 -1.16,-0.11 -0.4,0.11 -0.75,0.34 -0.98,0.73 -0.24,0.4 -0.29,0.79 -0.18,1.19 0.12,0.39 0.35,0.73 0.76,0.95 0.29,0.23 0.75,0.23 1.16,0.12 z M 6.03,47.77 C 5.63,47.38 5.05,47.1 4.41,47.1 c -0.64,0 -1.22,0.28 -1.62,0.67 -0.41,0.4 -0.7,0.96 -0.7,1.58 0,0.62 0.23,1.18 0.7,1.63 0.4,0.4 0.98,0.68 1.62,0.68 0.64,0 1.22,-0.28 1.62,-0.68 0.41,-0.39 0.7,-0.95 0.7,-1.63 -0.06,-0.62 -0.29,-1.18 -0.7,-1.58 z m -0.92,-2.7 c 0.92,0.17 1.74,0.56 2.38,1.24 0.11,0.11 0.17,0.23 0.29,0.34 l 1.56,-0.9 c -0.23,-0.62 -0.23,-1.3 -0.06,-1.92 0.24,-0.84 0.76,-1.58 1.63,-2.03 0.81,-0.45 1.74,-0.56 2.55,-0.33 0.87,0.22 1.63,0.78 2.09,1.57 0.47,0.79 0.58,1.75 0.35,2.59 -0.23,0.85 -0.75,1.58 -1.63,2.03 l -0.17,0.06 c -0.75,0.34 -1.57,0.39 -2.38,0.22 -0.64,-0.17 -1.22,-0.5 -1.68,-1.01 l -1.57,0.9 c 0.18,0.45 0.29,1.01 0.29,1.52 0,0.56 -0.11,1.07 -0.29,1.52 l 1.57,0.9 c 0.46,-0.5 1.04,-0.84 1.68,-1.01 0.87,-0.23 1.8,-0.11 2.61,0.34 h 0.06 c 0.81,0.45 1.34,1.18 1.57,2.02 0.23,0.85 0.11,1.75 -0.35,2.54 v 0.05 c -0.46,0.79 -1.22,1.3 -2.03,1.53 -0.87,0.22 -1.8,0.11 -2.61,-0.34 C 10.15,56.45 9.57,55.66 9.34,54.87 9.17,54.25 9.17,53.57 9.4,52.96 L 7.83,52.05 c -0.11,0.12 -0.17,0.23 -0.29,0.34 -0.63,0.62 -1.45,1.07 -2.38,1.24 v 1.8 c 0.64,0.12 1.28,0.45 1.69,0.9 0.64,0.62 0.98,1.47 0.98,2.37 0,0.9 -0.4,1.75 -0.98,2.37 -0.64,0.61 -1.45,1.01 -2.44,1.01 -0.93,0 -1.8,-0.4 -2.44,-1.01 C 1.33,60.45 0.99,59.6 0.99,58.7 c 0,-0.96 0.4,-1.8 0.98,-2.37 0.47,-0.45 1.05,-0.78 1.69,-0.9 v -1.8 C 2.73,53.46 1.91,53.07 1.28,52.39 0.46,51.6 0,50.53 0,49.35 0,48.17 0.52,47.1 1.28,46.31 1.91,45.69 2.73,45.24 3.66,45.07 v -1.8 C 3.02,43.16 2.44,42.82 1.97,42.37 1.33,41.75 0.99,40.9 0.99,39.95 c 0,-0.91 0.4,-1.81 0.98,-2.37 0.64,-0.62 1.45,-1.01 2.44,-1.01 0.93,0 1.8,0.39 2.44,1.01 0.64,0.62 0.98,1.46 0.98,2.37 0,0.95 -0.4,1.8 -0.98,2.36 -0.47,0.45 -1.05,0.79 -1.69,0.9 -0.05,0.06 -0.05,1.86 -0.05,1.86 z m 8.87,-1.18 C 13.75,43.49 13.4,43.27 13,43.16 c -0.41,-0.12 -0.81,-0.06 -1.22,0.17 -0.41,0.22 -0.64,0.56 -0.75,0.95 -0.12,0.4 -0.06,0.85 0.17,1.19 0.23,0.39 0.58,0.61 0.99,0.73 0.4,0.11 0.81,0.05 1.21,-0.17 0.35,-0.23 0.64,-0.56 0.7,-0.96 0.17,-0.39 0.12,-0.84 -0.12,-1.18 z"
   class="st1"
   id="path10"
   inkscape:connector-curvature="0"
   style="fill:#231f20;stroke:none;stroke-width:0.75;stroke-linecap:butt" />
			</g>
			<g
   id="shape3676-4"
   transform="translate(21.0641,-7.77187)">
				<title
   id="title13">Sheet.3676</title>
				<path
   d="m 0,52.17 h 1.74 v 5.35 l 2.55,-2.76 h 2.15 l -3.13,3.21 3.07,4.11 H 4.35 L 1.74,58.36 v 3.66 H 0 Z"
   class="st1"
   id="path15"
   inkscape:connector-curvature="0"
   style="fill:#231f20;stroke:none;stroke-width:0.75;stroke-linecap:butt" />
			</g>
			<g
   id="shape3677-6"
   transform="translate(27.7368,-7.60278)">
				<title
   id="title18">Sheet.3677</title>
				<path
   d="m 1.8,58.25 c 0,0.9 0.64,2.25 2.26,2.25 0.99,0 1.63,-0.51 1.97,-1.18 0.18,-0.34 0.24,-0.68 0.29,-1.01 0,-0.34 -0.05,-0.74 -0.23,-1.02 C 5.8,56.62 5.11,56 4,56 2.61,55.94 1.8,57.12 1.8,58.25 Z m 6.27,3.6 h -1.8 v -1.07 c -0.47,0.85 -1.45,1.3 -2.5,1.3 -2.38,0 -3.77,-1.8 -3.77,-3.89 0,-2.31 1.68,-3.88 3.77,-3.88 1.34,0 2.15,0.73 2.5,1.29 v -1.07 h 1.8 z"
   class="st1"
   id="path20"
   inkscape:connector-curvature="0"
   style="fill:#231f20;stroke:none;stroke-width:0.75;stroke-linecap:butt" />
			</g>
			<g
   id="shape3678-8"
   transform="translate(36.8477,-7.82818)">
				<title
   id="title23">Sheet.3678</title>
				<path
   d="M 0.93,56.11 H 0 v -1.35 h 0.93 v -0.4 c 0,-2.19 1.68,-2.31 2.96,-2.31 v 1.36 c -0.47,0 -1.16,0 -1.16,1.01 v 0.34 h 1.16 v 1.35 H 2.73 v 5.97 h -1.8 z"
   class="st1"
   id="path25"
   inkscape:connector-curvature="0"
   style="fill:#231f20;stroke:none;stroke-width:0.75;stroke-linecap:butt" />
			</g>
			<g
   id="shape3679-10"
   transform="translate(41.9539,-7.77187)">
				<title
   id="title28">Sheet.3679</title>
				<path
   d="m 0,52.17 h 1.74 v 5.35 l 2.55,-2.76 h 2.15 l -3.07,3.21 3.07,4.11 H 4.41 L 1.74,58.36 v 3.66 H 0 Z"
   class="st1"
   id="path30"
   inkscape:connector-curvature="0"
   style="fill:#231f20;stroke:none;stroke-width:0.75;stroke-linecap:butt" />
			</g>
			<g
   id="shape3680-12"
   transform="translate(48.6851,-7.60278)">
				<title
   id="title33">Sheet.3680</title>
				<path
   d="m 1.74,58.25 c 0,0.9 0.64,2.25 2.26,2.25 0.99,0 1.63,-0.51 1.98,-1.18 0.17,-0.34 0.23,-0.68 0.29,-1.01 0,-0.34 -0.06,-0.74 -0.24,-1.02 C 5.74,56.62 5.05,56 3.95,56 2.55,55.94 1.74,57.12 1.74,58.25 Z m 6.27,3.6 H 6.27 v -1.07 c -0.47,0.85 -1.45,1.3 -2.5,1.3 -2.38,0 -3.77,-1.8 -3.77,-3.89 0,-2.31 1.68,-3.88 3.77,-3.88 1.34,0 2.15,0.73 2.5,1.29 v -1.07 h 1.74 z"
   class="st1"
   id="path35"
   inkscape:connector-curvature="0"
   style="fill:#231f20;stroke:none;stroke-width:0.75;stroke-linecap:butt" />
			</g>
		</g>
	</g>
</svg>

<?xml version="1.0" encoding="UTF-8" standalone="no"?>
<!DOCTYPE svg PUBLIC "-//W3C//DTD SVG 1.1//EN" "http://www.w3.org/Graphics/SVG/1.1/DTD/svg11.dtd">
<!-- Generated by Microsoft Visio, SVG Export Kafka.svg Page-1 -->
<svg xmlns="http://www.w3.org/2000/svg" xmlns:xlink="http://www.w3.org/1999/xlink" xmlns:ev="http://www.w3.org/2001/xml-events"
		width="0.944882in" height="0.862205in" viewBox="0 0 68.0315 62.0787" xml:space="preserve"
		color-interpolation-filters="sRGB" class="st2">
	<style type="text/css">
	<![CDATA[
		.st1 {fill:#231f20;stroke:none;stroke-linecap:butt;stroke-width:0.75}
		.st2 {fill:none;fill-rule:evenodd;font-size:12px;overflow:visible;stroke-linecap:square;stroke-miterlimit:3}
	]]>
	</style>

	<g>
		<title>Page-1</title>
		<g id="group3590-1" transform="translate(5.66929,-34.0157)">
			<title>Kafka</title>
			<g id="shape3591-2">
				<title>Sheet.3591</title>
				<path d="M5.51 38.88 C5.22 38.59 4.82 38.37 4.41 38.37 C3.95 38.37 3.6 38.54 3.31 38.82 C3.02 39.1 2.84 39.5 2.84
							 39.95 C2.84 40.4 3.02 40.79 3.31 41.07 C3.6 41.35 4 41.52 4.41 41.52 C4.87 41.52 5.22 41.35 5.51 41.07
							 C5.8 40.79 5.98 40.4 5.98 39.95 C5.98 39.55 5.8 39.16 5.51 38.88 ZM4.41 60.33 C4.87 60.33 5.22 60.16
							 5.51 59.88 C5.8 59.6 5.98 59.21 5.98 58.76 C5.98 58.31 5.8 57.91 5.51 57.63 C5.22 57.35 4.82 57.18 4.41
							 57.18 C3.95 57.18 3.6 57.35 3.31 57.63 C3.02 57.91 2.84 58.31 2.84 58.76 C2.84 59.21 3.02 59.6 3.31
							 59.88 C3.54 60.16 3.95 60.33 4.41 60.33 ZM13.06 55.55 C13.46 55.43 13.81 55.21 14.04 54.81 L14.1 54.76
							 C14.27 54.42 14.33 53.97 14.22 53.63 C14.1 53.24 13.87 52.9 13.46 52.67 C13.11 52.45 12.65 52.45 12.3
							 52.56 C11.9 52.67 11.55 52.9 11.32 53.29 C11.08 53.69 11.03 54.08 11.14 54.48 C11.26 54.87 11.49 55.21
							 11.9 55.43 C12.19 55.66 12.65 55.66 13.06 55.55 ZM6.03 47.77 C5.63 47.38 5.05 47.1 4.41 47.1 C3.77 47.1
							 3.19 47.38 2.79 47.77 C2.38 48.17 2.09 48.73 2.09 49.35 C2.09 49.97 2.32 50.53 2.79 50.98 C3.19 51.38
							 3.77 51.66 4.41 51.66 C5.05 51.66 5.63 51.38 6.03 50.98 C6.44 50.59 6.73 50.03 6.73 49.35 C6.67 48.73
							 6.44 48.17 6.03 47.77 ZM5.11 45.07 C6.03 45.24 6.85 45.63 7.49 46.31 C7.6 46.42 7.66 46.54 7.78 46.65
							 L9.34 45.75 C9.11 45.13 9.11 44.45 9.28 43.83 C9.52 42.99 10.04 42.25 10.91 41.8 C11.72 41.35 12.65
							 41.24 13.46 41.47 C14.33 41.69 15.09 42.25 15.55 43.04 C16.02 43.83 16.13 44.79 15.9 45.63 C15.67 46.48
							 15.15 47.21 14.27 47.66 L14.1 47.72 C13.35 48.06 12.53 48.11 11.72 47.94 C11.08 47.77 10.5 47.44 10.04
							 46.93 L8.47 47.83 C8.65 48.28 8.76 48.84 8.76 49.35 C8.76 49.91 8.65 50.42 8.47 50.87 L10.04 51.77 C10.5
							 51.27 11.08 50.93 11.72 50.76 C12.59 50.53 13.52 50.65 14.33 51.1 L14.39 51.1 C15.2 51.55 15.73 52.28
							 15.96 53.12 C16.19 53.97 16.07 54.87 15.61 55.66 L15.61 55.71 C15.15 56.5 14.39 57.01 13.58 57.24 C12.71
							 57.46 11.78 57.35 10.97 56.9 C10.15 56.45 9.57 55.66 9.34 54.87 C9.17 54.25 9.17 53.57 9.4 52.96 L7.83
							 52.05 C7.72 52.17 7.66 52.28 7.54 52.39 C6.91 53.01 6.09 53.46 5.16 53.63 L5.16 55.43 C5.8 55.55 6.44
							 55.88 6.85 56.33 C7.49 56.95 7.83 57.8 7.83 58.7 C7.83 59.6 7.43 60.45 6.85 61.07 C6.21 61.68 5.4 62.08
							 4.41 62.08 C3.48 62.08 2.61 61.68 1.97 61.07 C1.33 60.45 0.99 59.6 0.99 58.7 C0.99 57.74 1.39 56.9 1.97
							 56.33 C2.44 55.88 3.02 55.55 3.66 55.43 L3.66 53.63 C2.73 53.46 1.91 53.07 1.28 52.39 C0.46 51.6 0 50.53
							 0 49.35 C0 48.17 0.52 47.1 1.28 46.31 C1.91 45.69 2.73 45.24 3.66 45.07 L3.66 43.27 C3.02 43.16 2.44
							 42.82 1.97 42.37 C1.33 41.75 0.99 40.9 0.99 39.95 C0.99 39.04 1.39 38.14 1.97 37.58 C2.61 36.96 3.42
							 36.57 4.41 36.57 C5.34 36.57 6.21 36.96 6.85 37.58 C7.49 38.2 7.83 39.04 7.83 39.95 C7.83 40.9 7.43
							 41.75 6.85 42.31 C6.38 42.76 5.8 43.1 5.16 43.21 C5.11 43.27 5.11 45.07 5.11 45.07 ZM13.98 43.89 C13.75
							 43.49 13.4 43.27 13 43.16 C12.59 43.04 12.19 43.1 11.78 43.33 C11.37 43.55 11.14 43.89 11.03 44.28 C10.91
							 44.68 10.97 45.13 11.2 45.47 C11.43 45.86 11.78 46.08 12.19 46.2 C12.59 46.31 13 46.25 13.4 46.03 C13.75
							 45.8 14.04 45.47 14.1 45.07 C14.27 44.68 14.22 44.23 13.98 43.89 Z" class="st1"/>
			</g>
			<g id="shape3592-4" transform="translate(21.0641,-7.77187)">
				<title>Sheet.3592</title>
				<path d="M0 52.17 L1.74 52.17 L1.74 57.52 L4.29 54.76 L6.44 54.76 L3.31 57.97 L6.38 62.08 L4.35 62.08 L1.74 58.36
							 L1.74 62.02 L0 62.02 L0 52.17 Z" class="st1"/>
			</g>
			<g id="shape3593-6" transform="translate(27.7368,-7.60278)">
				<title>Sheet.3593</title>
				<path d="M1.8 58.25 C1.8 59.15 2.44 60.5 4.06 60.5 C5.05 60.5 5.69 59.99 6.03 59.32 C6.21 58.98 6.27 58.64 6.32 58.31
							 C6.32 57.97 6.27 57.57 6.09 57.29 C5.8 56.62 5.11 56 4 56 C2.61 55.94 1.8 57.12 1.8 58.25 ZM8.07 61.85
							 L6.27 61.85 L6.27 60.78 C5.8 61.63 4.82 62.08 3.77 62.08 C1.39 62.08 0 60.28 0 58.19 C0 55.88 1.68 54.31
							 3.77 54.31 C5.11 54.31 5.92 55.04 6.27 55.6 L6.27 54.53 L8.07 54.53 L8.07 61.85 Z" class="st1"/>
			</g>
			<g id="shape3594-8" transform="translate(36.8477,-7.82818)">
				<title>Sheet.3594</title>
				<path d="M0.93 56.11 L0 56.11 L0 54.76 L0.93 54.76 L0.93 54.36 C0.93 52.17 2.61 52.05 3.89 52.05 L3.89 53.41 C3.42
							 53.41 2.73 53.41 2.73 54.42 L2.73 54.76 L3.89 54.76 L3.89 56.11 L2.73 56.11 L2.73 62.08 L0.93 62.08
							 L0.93 56.11 Z" class="st1"/>
			</g>
			<g id="shape3595-10" transform="translate(41.9539,-7.77187)">
				<title>Sheet.3595</title>
				<path d="M0 52.17 L1.74 52.17 L1.74 57.52 L4.29 54.76 L6.44 54.76 L3.37 57.97 L6.44 62.08 L4.41 62.08 L1.74 58.36
							 L1.74 62.02 L0 62.02 L0 52.17 Z" class="st1"/>
			</g>
			<g id="shape3596-12" transform="translate(48.6851,-7.60278)">
				<title>Sheet.3596</title>
				<path d="M1.74 58.25 C1.74 59.15 2.38 60.5 4 60.5 C4.99 60.5 5.63 59.99 5.98 59.32 C6.15 58.98 6.21 58.64 6.27 58.31
							 C6.27 57.97 6.21 57.57 6.03 57.29 C5.74 56.62 5.05 56 3.95 56 C2.55 55.94 1.74 57.12 1.74 58.25 ZM8.01
							 61.85 L6.27 61.85 L6.27 60.78 C5.8 61.63 4.82 62.08 3.77 62.08 C1.39 62.08 0 60.28 0 58.19 C0 55.88
							 1.68 54.31 3.77 54.31 C5.11 54.31 5.92 55.04 6.27 55.6 L6.27 54.53 L8.01 54.53 L8.01 61.85 Z"
						class="st1"/>
			</g>
		</g>
	</g>
</svg>
